X:434
T:Polska efter Pål Nilsson
T:(SvL Jämtland 434)
R:Polska
S:Pål Nilsson
O:Föllinge, Jämtland
B:Svenska Låtar Jämtland
M:3/4
L:1/8
K:D
ua|d'c' Tb2 a2|(3b(c'b) ag fa|d'c' Tba ^ga|(3b(d'b) a3:|
|:(e/=f/)|(3d(e=f{gf}) e3 ^c|Ag g^f- fg|(3e(ge) (3d(fd) (3c(Ac)|(3B(A^G) BA- AA|
(3d(e=f) e3 ^c|Ag g^f- fb|(3g(ag) (f{gf})e d2|(3c(Bc) d3:|

